X:163
T: ICH STAND AUF HOHEM BERGE
N: E0089B
O: Europa, Mitteleuropa, Deutschland
R: erzaehlendes Volks - Lied, Sage, Liebe, Leid
M: 2/4
L: 1/16
K: F
FA | c3fc2B2 | A4G2
G2 | A2A2B2d2 | c4z2
c2 | f2f2edc2 | d4c4 | B4A2
c2 | d2cBA2G2 | F4z2

